src/static/clients/troops-logo.svg

<svg fill="none" height="42" viewBox="0 0 203 42" width="203" xmlns="http://www.w3.org/2000/svg"><path clip-rule="evenodd" d="m32.3267.197626v9.423164h-11.8592v32.37921h-10.3588v-32.37921h-10.1087v-9.423164zm88.5293-.197626c11.916 0 21.608 9.41476 21.608 20.9882 0 .5901-.026 1.1735-.076 1.7501-.918 10.7572-10.225 19.2381-21.532 19.2381-5.965 0-11.372-2.3604-15.287-6.1684l.14-.1521c2.494-2.8093 4.213-6.1482 5.048-9.7039 1.867 3.5776 5.685 6.0288 10.099 6.0288 5.639 0 10.313-4.003 11.174-9.2425.093-.5707.146-1.1533.146-1.7501 0-6.0709-5.068-10.9909-11.32-10.9909-6.251 0-11.318 5.1932-11.318 10.9934-.002 5.3538-1.96 9.8813-5.191 13.5245-3.968 4.4661-9.8565 7.2981-16.4214 7.2981-11.9148 0-21.6084-9.3408-21.6084-20.8251 0-.5876.0286-1.1718.0783-1.7485.9236-10.66807 10.2283-19.079145 21.5301-19.079145 5.9132 0 11.2749 2.302415 15.1814 6.021245l-.136.15383c-2.45 2.81518-4.1376 6.15487-4.9569 9.70727-1.87-3.5381-5.6833-5.9641-10.0885-5.9641-5.632 0-10.3024 3.9685-11.1721 9.1609-.0952.5683-.1457 1.1542-.1457 1.7485 0 6.028 5.067 10.9119 11.3178 10.9119 6.2525 0 11.3203-5.1075 11.3203-10.9094.0017-5.3546 1.9201-9.8687 5.1011-13.52614 3.966-4.55943 9.895-7.46456 16.509-7.46456zm70.095.0836401c2.909 0 6.084.5194929 8.711 1.4239799l1.852.63718-1.488 9.4929-2.77-1.0574c-2.548-.96926-3.735-1.3366-6.092-1.3366-2.723 0-4.104.8372-4.104 2.4899 0 1.3895 1.61 2.2957 5.031 3.8962 4.602 2.1544 10.909 5.1066 10.909 13.2899 0 8.1673-5.955 13.0436-15.928 13.0436-3 0-5.875-.8321-8.334-1.6114l-1.834-.58 1.075-9.7233 2.931 1.171c.93.3724 4.16 1.582 6.799 1.582 1.363 0 4.899-.643 4.899-3.5734 0-2.0183-1.711-3.0094-5.619-4.794-4.356-1.9871-10.319-4.709-10.319-12.2358 0-7.24598 5.74-12.1147599 14.281-12.1147599zm-144.2581.1130759.3095.000694c5.0885.01902 16.6154.494525 16.6154 12.38209 0 3.9694-2.1108 7.341-5.5452 9.2627.3957.559.7611 1.1844 1.1333 1.8922l.0337.063 8.8516 18.1108h-11.6663l-6.4773-14.2289c-1.0019-2.1321-1.421-2.1882-3.9388-2.1897l-1.0407-.0001v16.4187h-10.3335v-41.711583h11.7666c.0941 0 .1915 0 .2917.000099zm111.3371.00049c14.553 0 16.727 8.421164 16.727 13.440394 0 8.3228-6.096 13.4925-15.909 13.4925h-2.904v14.7762h-10.334v-41.709094zm.109 9.402154h-2.195v8.12864h2.958c1.219 0 5.194-.2984 5.194-4.1433 0-3.2692-4.3-3.98534-5.957-3.98534zm-110.6795.02126h-2.7297v6.33728h2.1437c5.1083 0 5.6598-2.3251 5.6598-3.3229 0-1.9998-1.7076-3.01438-5.0738-3.01438z" fill="#635d98" fill-rule="evenodd"/></svg>

<svg width="203" height="42" viewBox="0 0 203 42" fill="none" xmlns="http://www.w3.org/2000/svg">
<path fill-rule="evenodd" clip-rule="evenodd" d="M32.3267 0.197626V9.62079H20.4675V42H10.1087V9.62079H0V0.197626H32.3267ZM120.856 0C132.772 0 142.464 9.41476 142.464 20.9882C142.464 21.5783 142.438 22.1617 142.388 22.7383C141.47 33.4955 132.163 41.9764 120.856 41.9764C114.891 41.9764 109.484 39.616 105.569 35.808L105.709 35.6559C108.203 32.8466 109.922 29.5077 110.757 25.952C112.624 29.5296 116.442 31.9808 120.856 31.9808C126.495 31.9808 131.169 27.9778 132.03 22.7383C132.123 22.1676 132.176 21.585 132.176 20.9882C132.176 14.9173 127.108 9.9973 120.856 9.9973C114.605 9.9973 109.538 15.1905 109.538 20.9907C109.536 26.3445 107.578 30.872 104.347 34.5152C100.379 38.9813 94.4905 41.8133 87.9256 41.8133C76.0108 41.8133 66.3172 32.4725 66.3172 20.9882C66.3172 20.4006 66.3458 19.8164 66.3955 19.2397C67.3191 8.57163 76.6238 0.160555 87.9256 0.160555C93.8388 0.160555 99.2005 2.46297 103.107 6.1818L102.971 6.33563C100.521 9.15081 98.8334 12.4905 98.0141 16.0429C96.1441 12.5048 92.3308 10.0788 87.9256 10.0788C82.2936 10.0788 77.6232 14.0473 76.7535 19.2397C76.6583 19.808 76.6078 20.3939 76.6078 20.9882C76.6078 27.0162 81.6748 31.9001 87.9256 31.9001C94.1781 31.9001 99.2459 26.7926 99.2459 20.9907C99.2476 15.6361 101.166 11.122 104.347 7.46456C108.313 2.90513 114.242 0 120.856 0ZM190.951 0.0836401C193.86 0.0836401 197.035 0.603133 199.662 1.50762L201.514 2.1448L200.026 11.6377L197.256 10.5803C194.708 9.61104 193.521 9.2437 191.164 9.2437C188.441 9.2437 187.06 10.0809 187.06 11.7336C187.06 13.1231 188.67 14.0293 192.091 15.6298C196.693 17.7842 203 20.7364 203 28.9197C203 37.087 197.045 41.9633 187.072 41.9633C184.072 41.9633 181.197 41.1312 178.738 40.3519L176.904 39.7719L177.979 30.0486L180.91 31.2196C181.84 31.592 185.07 32.8016 187.709 32.8016C189.072 32.8016 192.608 32.1586 192.608 29.2282C192.608 27.2099 190.897 26.2188 186.989 24.4342C182.633 22.4471 176.67 19.7252 176.67 12.1984C176.67 4.95242 182.41 0.0836401 190.951 0.0836401ZM46.6929 0.196716L47.0024 0.19741C52.0909 0.21643 63.6178 0.691935 63.6178 12.5795C63.6178 16.5489 61.507 19.9205 58.0726 21.8422C58.4683 22.4012 58.8337 23.0266 59.2059 23.7344L59.2396 23.7974L68.0912 41.9082H56.4249L49.9476 27.6793C48.9457 25.5472 48.5266 25.4911 46.0088 25.4896L44.9681 25.4895V41.9082H34.6346V0.196617H46.4012C46.4953 0.196617 46.5927 0.196617 46.6929 0.196716ZM158.03 0.197206C172.583 0.197206 174.757 8.61837 174.757 13.6376C174.757 21.9604 168.661 27.1301 158.848 27.1301H155.944V41.9063H145.61V0.197206H158.03ZM158.139 9.59936H155.944V17.728H158.902C160.121 17.728 164.096 17.4296 164.096 13.5847C164.096 10.3155 159.796 9.59936 158.139 9.59936ZM47.4595 9.62062H44.7298V15.9579H46.8735C51.9818 15.9579 52.5333 13.6328 52.5333 12.635C52.5333 10.6352 50.8257 9.62062 47.4595 9.62062Z" fill="#635d98"/>
</svg>
